!!!Xfilter: transpose -t -M2
!!!OTL: 771b. Zum Abschied.
!!!ODT: 1860
!!!ARE: Europa, Mitteleuropa, Deutschland, Rheinland, Siebengebirge
!!!SCT: E0771B
!!!TXL: @@DE
!!!YEM: Copyright 1995, estate of Helmut Schaffrath.
**kern	**text
*ICvox	*
*M4/4	*
*met(c)	*
*k[b-]	*
*F:	*
=1	=1
!LO:TX:a:t=Bewegt.	!
!LO:TX:a:t=Mel. aus dem Siebengeb. 1860.	!
{4.f	Lie-
8a	-ben,
4cc	lie-
4cc	-ben,
=2	=2
4cc	das
4cc	iſt
(4a	gut,
4f)}	.
=3	=3
{4.dd	wer
8cc	es
4b-	recht
4a	ver-
=4	=4
4g	-ſte-
4cc	-hen
2cc;}	thut,
=5	=5
{4.g	a-
8b-/	-ber
(4b-/	wer
4a)	es
=6	=6
4cc	nicht
4g	recht
(4g	kann,
4f)}	.
=7	=7
{4f	der
4dd	muß
4cc	Leh-
4b-	-re
=8	=8
4a	neh-
4g	-men
2f}	an.
=9	=9
{4.g	a-
8b-/	-ber
(4b-/	wer
4a)	es
=10	=10
4cc	nicht
4g	recht
(4g	kann,
4f)}	.
=11	=11
{4f	der
4dd	muß
4cc	Leh-
4b-	-re
=12	=12
4a	neh-
4g	-men
2f}	an.
==	==
!!!AGN: Abschieds - Lied, Liebe
!!!ONB: ESAC (Essen Associative Code) Database: ERK2
!!!AMT: simple quadruple
!!!AIN: vox
!!!EED: Helmut Schaffrath
!!!EEV: 1.0
!!!GTL: Abschieds- und Wanderlieder
!!!URL-scan: https://rosdok.uni-rostock.de/mcrviewer/recordIdentifier/rosdok_ppn745177662/iview2/phys_0579.iview2?x=60.17622681969351&y=2112.0277859019116&scale=0.7029437510502773&rotation=0&layout=singlePageLayout
!!!ENC: Anna Maria Matuszewska
!!!EEV: 2024/12/17
*-	*-
